src/assets/icons/letters,fancy,serif-u.svg

<svg width="48" height="48" viewBox="0 0 48 48" fill="none" xmlns="http://www.w3.org/2000/svg">
<path d="M36.0482 25.22C36.0482 27.3733 35.8076 29.2227 35.3262 30.768C34.8702 32.288 34.1482 33.542 33.1602 34.53C32.1722 35.518 30.8929 36.24 29.3222 36.696C27.7769 37.152 25.9149 37.38 23.7362 37.38C19.6576 37.38 16.6682 36.5313 14.7682 34.834C12.8936 33.1113 11.9562 30.3753 11.9562 26.626V16.214C11.9562 15.226 11.9436 14.4027 11.9182 13.744C11.8929 13.06 11.8549 12.49 11.8042 12.034C11.7536 11.578 11.6776 11.2107 11.5762 10.932C11.5002 10.628 11.3989 10.3747 11.2722 10.172C11.0442 9.81733 10.7149 9.57667 10.2842 9.45C9.85356 9.32333 9.19489 9.26 8.30823 9.26V7.74H21.9502V9.26C20.8862 9.26 20.1009 9.32333 19.5942 9.45C19.0876 9.55133 18.6949 9.76667 18.4162 10.096C18.2389 10.2987 18.0869 10.552 17.9602 10.856C17.8589 11.1347 17.7702 11.5147 17.6942 11.996C17.6436 12.452 17.6056 13.022 17.5802 13.706C17.5549 14.39 17.5422 15.226 17.5422 16.214V26.17C17.5422 29.058 18.1502 31.1987 19.3662 32.592C20.6076 33.96 22.5076 34.644 25.0662 34.644C30.2849 34.644 32.8942 31.7433 32.8942 25.942V17.164C32.8942 16.1 32.8689 15.188 32.8182 14.428C32.7929 13.668 32.7296 13.022 32.6282 12.49C32.5522 11.958 32.4382 11.5147 32.2862 11.16C32.1596 10.8053 31.9949 10.514 31.7922 10.286C31.4376 9.93133 30.9816 9.678 30.4242 9.526C29.8669 9.34867 29.0942 9.26 28.1062 9.26V7.74H40.4182V9.26C39.4809 9.26 38.7589 9.336 38.2522 9.488C37.7456 9.61467 37.3529 9.85533 37.0742 10.21C36.8716 10.438 36.7069 10.742 36.5802 11.122C36.4536 11.4767 36.3522 11.9327 36.2762 12.49C36.2002 13.022 36.1369 13.668 36.0862 14.428C36.0609 15.188 36.0482 16.1 36.0482 17.164V25.22Z" fill="black"/>
</svg>

<svg xmlns="http://www.w3.org/2000/svg" width="48" height="48" fill="none" viewBox="0 0 48 48">
  <path fill="#000" d="M36.048 25.22c0 2.153-.24 4.003-.722 5.548-.456 1.52-1.178 2.774-2.166 3.762s-2.267 1.71-3.838 2.166c-1.545.456-3.407.684-5.586.684-4.078 0-7.068-.849-8.968-2.546-1.874-1.723-2.812-4.459-2.812-8.208V16.214c0-.988-.012-1.811-.038-2.47a23.94 23.94 0 00-.114-1.71c-.05-.456-.126-.823-.228-1.102a2.64 2.64 0 00-.304-.76 1.7 1.7 0 00-.988-.722c-.43-.127-1.09-.19-1.976-.19V7.74H21.95v1.52c-1.064 0-1.85.063-2.356.19-.506.101-.9.317-1.178.646-.177.203-.33.456-.456.76-.101.279-.19.659-.266 1.14-.05.456-.088 1.026-.114 1.71-.025.684-.038 1.52-.038 2.508v9.956c0 2.888.608 5.029 1.824 6.422 1.242 1.368 3.142 2.052 5.7 2.052 5.219 0 7.828-2.9 7.828-8.702v-8.778c0-1.064-.025-1.976-.076-2.736a12.826 12.826 0 00-.19-1.938c-.076-.532-.19-.975-.342-1.33a2.63 2.63 0 00-.494-.874c-.354-.355-.81-.608-1.368-.76-.557-.177-1.33-.266-2.318-.266V7.74h12.312v1.52c-.937 0-1.66.076-2.166.228-.506.127-.9.367-1.178.722-.202.228-.367.532-.494.912-.126.355-.228.81-.304 1.368-.076.532-.14 1.178-.19 1.938-.025.76-.038 1.672-.038 2.736v8.056z"/>
</svg>
